public/themes/EC/images/diamon.svg

<?xml version="1.0" encoding="UTF-8"?>
<svg width="179px" height="179px" viewBox="0 0 179 179" version="1.1" xmlns="http://www.w3.org/2000/svg" xmlns:xlink="http://www.w3.org/1999/xlink">
    <!-- Generator: Sketch 61 (89581) - https://sketch.com -->
    <title>Group 2</title>
    <desc>Created with Sketch.</desc>
    <g id="Page-1" stroke="none" stroke-width="1" fill="none" fill-rule="evenodd">
        <g id="Artboard" transform="translate(-737.000000, -217.000000)">
            <g id="Group-2" transform="translate(737.000000, 217.000000)">
                <path d="M0.27112582,35.2748724 L87.9445952,178.129544 C87.946825,178.133112 87.9510611,178.134003 87.953291,178.137571 C88.1000019,178.373022 88.3066907,178.554962 88.5390206,178.701227 C88.5947619,178.736456 88.6473817,178.764549 88.7066903,178.793535 C88.9512828,178.91349 89.2137129,179 89.5,179 C89.7862871,179 90.0487172,178.91349 90.2933101,178.793534 C90.352619,178.764549 90.4052384,178.736455 90.4609798,178.701226 C90.6933093,178.554961 90.8999981,178.373021 91.0467094,178.13757 C91.0489392,178.134003 91.0531753,178.133111 91.0554052,178.129543 L178.728875,35.2748717 C178.746043,35.2467782 178.73757,35.2122184 178.753178,35.1834561 C178.896767,34.9225877 179,34.6378611 179,34.318798 C179,34.306089 178.993088,34.2958327 178.992865,34.2833465 C178.992196,34.2507937 178.976366,34.2231459 178.974136,34.1908159 C178.952508,33.8924887 178.853958,33.6255993 178.706355,33.3843508 C178.68495,33.3488993 178.692308,33.3043064 178.668228,33.2699698 L155.854432,0.777702396 C155.825224,0.736231018 155.775726,0.719062727 155.743619,0.680489688 C155.697911,0.624971194 155.675837,0.557412941 155.622548,0.506576941 C155.540051,0.427424237 155.436818,0.391081027 155.344511,0.330657567 C155.266027,0.27892949 155.198246,0.222742486 155.11285,0.183723408 C154.910175,0.0914156653 154.699027,0.0437012061 154.480744,0.0296544551 C154.438381,0.026755751 154.402483,0 154.359674,0 L24.6438937,0 C24.6066584,0 24.5754433,0.0236342102 24.5384309,0.0258640388 C24.314351,0.0383498367 24.0976288,0.088963 23.8896023,0.184169082 C23.8050986,0.22274212 23.7377632,0.278260614 23.660171,0.329542653 C23.5674176,0.390412151 23.4639618,0.426755361 23.3810187,0.506576941 C23.3277301,0.557412941 23.3056564,0.624971559 23.2599486,0.680489688 C23.2278418,0.719062727 23.1783436,0.736231018 23.1491352,0.777702396 L0.331772116,33.2699698 C0.307691867,33.3043064 0.315049863,33.3488993 0.293645116,33.3843508 C0.146042082,33.625599 0.0474916224,33.8924883 0.0258640388,34.1908159 C0.0236342102,34.2231459 0.00780403469,34.2507937 0.00713479388,34.2833465 C0.00691195714,34.2958323 0,34.3060886 0,34.318798 C0,34.6378611 0.103232953,34.9225877 0.246822369,35.1834568 C0.262430073,35.2122192 0.253957163,35.2467789 0.27112582,35.2748724 Z" id="Path" fill="#000000" fill-rule="nonzero"></path>
                <polygon id="Path-3" fill="#FFFFFF" points="5.34001567 32.4922674 24.8606156 4.69564636 51.4516639 32.4922674"></polygon>
                <polygon id="Path-4" fill="#FFFFFF" points="28.9192506 3.65306122 55.7805327 31.7324018 85.1053568 3.65306122"></polygon>
                <polygon id="Path-5" fill="#FFFFFF" points="60.2603485 32.4922674 89.5 4.69564636 118.742996 32.4922674"></polygon>
                <polygon id="Path-6" fill="#FFFFFF" points="94.0335505 3.65306122 123.223035 31.7324018 150.084317 3.65306122"></polygon>
                <polygon id="Path-7" fill="#FFFFFF" points="127.551904 32.4922674 154.142952 4.69564636 173.660207 32.4922674"></polygon>
                <polygon id="Path-8" fill="#FFFFFF" points="124.720692 36.1453286 173.660207 36.1453286 93.8950893 166.520417"></polygon>
                <polygon id="Path-9" fill="#FFFFFF" points="120.968634 36.1453286 89.5017836 169.235909 58.0349332 36.1453283"></polygon>
                <polygon id="Path-10" fill="#FFFFFF" points="5.34001567 36.1453286 54.2826527 36.1453286 85.1053568 166.520417"></polygon>
            </g>
        </g>
    </g>
</svg>

<svg width="179" height="179" viewBox="0 0 179 179" xmlns="http://www.w3.org/2000/svg"><title>Group 2</title><g fill="none" fill-rule="evenodd"><path d="M.271 35.275L87.945 178.13c.002.003.006.004.008.008.147.235.354.417.586.563a1.7 1.7 0 0 0 .168.093c.244.12.507.206.793.206.286 0 .549-.087.793-.206a1.7 1.7 0 0 0 .168-.093c.232-.146.439-.328.586-.563.002-.004.006-.005.008-.008L178.73 35.275c.017-.028.009-.063.024-.092.144-.26.247-.545.247-.864 0-.013-.007-.023-.007-.036 0-.032-.017-.06-.019-.092a1.775 1.775 0 0 0-.268-.807c-.021-.035-.014-.08-.038-.114L155.854.778c-.029-.042-.078-.059-.11-.098-.046-.055-.068-.123-.121-.173-.083-.08-.186-.116-.278-.176-.079-.052-.147-.108-.232-.147a1.785 1.785 0 0 0-.632-.154c-.043-.003-.079-.03-.121-.03H24.644c-.037 0-.069.024-.106.026-.224.012-.44.063-.648.158-.085.039-.152.094-.23.146-.093.06-.196.097-.279.177-.053.05-.075.118-.121.173-.032.04-.082.056-.11.098L.331 33.27c-.024.034-.017.079-.038.114a1.775 1.775 0 0 0-.268.807c-.002.032-.018.06-.019.092 0 .013-.007.023-.007.036 0 .319.103.604.247.864.015.03.007.064.024.092z" fill="#000" fill-rule="nonzero"/><path fill="#FFF" d="M5.34 32.492L24.86 4.696l26.592 27.796zM28.92 3.653l26.86 28.08 29.325-28.08zm31.34 28.839L89.5 4.696l29.243 27.796zM94.034 3.653l29.189 28.08 26.861-28.08zm33.518 28.839l26.591-27.796 19.517 27.796zm-2.832 3.653h48.94L93.895 166.52zm-3.751 0l-31.467 133.09-31.467-133.09zm-115.629 0h48.943L85.105 166.52z"/></g></svg>
